X: 07118
T: TOWN HALL POLKA
C: Bob McQuillen 22 Feb 89
B: Bob's Note Book 7 #118
%R: polka, reel
Z: 2019 John Chambers <jc:trillian.mit.edu>
M: C
L: 1/8
K: D	% and Bm
AG \
| F2FD E2FE | DEFG A2FG | A2dc B2AG | F2E2 E2AG |\
| F2FD E2FE | DFAB A2FA | B2d2 ABAG | F2D2 D2 :|
|: dc \
| B2F2 Bcde | d2B2 B2de | f2fd Bded | c2A2 A2FA |\
| B2F2 Bcde | d2B2 Bdfe | dBAB F2A2 | B6 :|
%%begintext align
%% I was thinking
%% of the Town Hall in Francestown when I wrote this
%% tune - Do you think it will sound OK there?
%% Perhaps Gladys St. John will return some night
%% to dance it with me, the way we did 40 years ago.
%%endtext
%%begintext align
%% P.S. I think this might turn into a fairly good schottische if you slow it way down -
%% try it and see what you think.
%%endtext

%%sep 1 1 500

%%sep 1 1 500

